X:1
T:Nel dolce dell'oblio
T:Nel dolce dell'oblio
T:Pensieri notturni di Filli - Cantata a voce sola con flauto
T:Georg Friedrich HANDEL
C:Georg Friedrich HANDEL
%%score 1 2 3
L:1/8
M:4/4
K:C
V:1 treble nm="Flauto" snm="Fl."
V:2 treble nm="Soprano" snm="S."
V:3 bass nm="Violoncello" snm="Vc."
V:1
 z8 | z8 | z8 | z8 | z8 | z8 |[K:C][M:4/4] z2 z c/G/ cccc | ce/d/ cd/e/ fe f/e/d/c/ | %8
 dG z/ g/f/g/ e/g/d/g/ e/g/d/g/ | ed z/ g/f/g/ e/g/d/g/ e/g/d/g/ | %10
 ed z/ c'/b/c'/ a/b/g/a/ f/g/e/g/ | d/g/c/g/ B/g/A/g/ G/f/e/d/ d>c | c2 z2 z4 | z8 | z8 | z8 | %16
 z4 z2 z/ c'/b/c'/ | a/b/g/a/ ^f/g/e/g/ d/g/c/g/ B/g/A/g/ | Gg/a/ f>g g2 z2 | z8 | z8 | %21
 z4 z2 z g/f/ | e/g/d/g/ e/g/d/g/ ed z2 | z g/f/ e/g/d/g/ ed z g | a/c'/a/c'/ a/c'/a/c'/ bc' z2 | %25
 z4 z g/f/ ec | z2 z d'/c'/ b/d'/b/d'/ b/d'/c'/b/ | c'/b/c'/d'/ b>c' c'2 z/ g/f/g/ | %28
 e/g/d/g/ e/g/d/g/ ed z/ g/f/g/ | e/g/d/g/ e/g/d/g/ ed z/ c'/b/c'/ | %30
 a/c'/g/c'/ f/g/e/g/ d/g/c/g/ B/g/A/g/ | B/f/e/d/ d>c"^Fine" c2 |] z2 | z8 | z8 | z8 | z8 | z8 | %38
 z8 | z8 | z8 | z8 | z8 |"^Da capo" z2 |] %44
V:2
 z2 e B B2 B A | B B z2 z B d c | A A z A/ B/ ^c2 B A | d d z d d A B c | B2 z2 z e ^d z/ e/ | %5
w: Co- sì fi- da.el- la|vi- ve al cuor che.a-|do- ra, e nell' om- bre re-|spi- ra la lu- ce di quel|sol per cui so-|
 e B z2 z4 |[K:C][M:4/4] z8 | z8 | z8 | z8 | z8 | z8 | z2 z c/ G/ c c c c | %13
w: spi- ra|||||||Ha l'in- gan- no.il suo di-|
 c c2 d/ e/ f e f/e/ d/c/ | d G z g/ d/ e2 z/ e/ ^f/ g/ | ^f d z g/ f/ e/ d/ c/ B/ c2- | %16
w: let- to se.i pen- sier mos- si- * * d'af-|fet- to sti- man ver ciò che non|san- no, sti- man ver ciò che non san-|
 c/e/d/e/ BA/G/ G2 z2 | z8 | z2 z d/ c/ B/A/G z g/ f/ | e d c B A A z d/ e/ | %20
w: * * * * * * * no,||se.i pen- sier, * * se.i pen-|sier mos- si d'af- fet- to sti- man|
 f e f/e/ d/c/ d G z g/ f/ | e/g/ d/g/ e/g/ d/g/ e d z2 | z4 z g/f/ e/g/ d/g/ | e d z2 z2 z g/ g/ | %24
w: ver ciù che * non * san- no, ha l'in-|gan- no il * suo * di- * let- to,|il * suo * di- *|let- to se.i pen-|
 g f f f f e2 d/ c/ | B/ a/ g/ f/ ed c2 z c/ B/ | A A f f f2- f/ a/ g/ f/ | e/ d/ e/ f/ d2 c2 z2 | %28
w: sier mos- si d'af- fet- to sti- man|ver ciò che non san- * no, se.i pen-|sier mos- si d'af- fet- * to sti- man|ver ciò che non san- no.|
 z8 | z8 | z8 | z4 z2 |] e B | c2 z c/ A/ f f f f | ^G e z e/ f/ d d d d | dc z f/ d/ _B B B d | %36
w: ||||Ma se|poi si ri- sve- glia.un tal er-|ro- re, il pen- sier ri- di- ce.a|noi * ha l'in- gan- no.il suo do-|
 d f2 e/ d/ c/ B/ A/ B/ ^G2 | A2 z A/ B/ c3 d/ e/ | d c c c c B z B/ B/ | e A A A A2 z A/ A/ | %40
w: lo- re, ha l'in- gan- no.il suo do- lo-|re, ma se poi si ri-|sve- glia.un tal er- ro- re il pen-|sier ri- di- ce.a noi ha l'in-|
 _BABG ^d4- | d ^d e2- e ^f/g/ ^d>e | c3 B/ A/ B/ A/ G/ A/ ^F2 |"^Da capo" E2 |] %44
w: gan- * * * *|* no.il suo- * do- * lo- *|re, ha l'in- gan- no.il suo do- lo-|re|
V:3
"^Recitativo" (^G,,8 | G,,8) | =G,,8 | ^F,,8 | G,,4 C,4 | z2 B,,2 E,2 z2 | %6
[K:C][M:4/4] z2 z C/B,/ A,G,F,E, | A,G,A,E, D,C,F,A, | G,A,B,G, CB,CB, | CG,/A,/ B,G, CB,CB, | %10
 CG,/F,/ E,C, F,E,A,G, | F,E,D,C, B,,C,G,G,, | C,2 z C/B,/ A,G,F,E, | A,G,F,E, D,C,F,A, | %14
 G,A,B,G, CB,CA, | D,C,B,,G,, C,2 z A,/G,/ | ^F,G,D,D,, G,,G,E,D, | C,2 z C, D,2 z D, | %18
 D,C,D,D,, G,,A,,B,,G,, | C,D,E,C, F,G,F,E, | D,C,F,A, G,A,B,G, | CB,CB, CG,B,G, | CB,CB, CG,CB, | %23
 CG,CB, CG, z E, | F,F,, z F, G,A,E,F, | G,C,G,G,, C,2 z E, | F,E,D,C, G,,2 z G, | %27
 A,F,G,G,, C,CB,G, | CB,CB, CG,CB, | CB,CB, CG,E,C, | F,E,A,G, F,E,D,C, | B,,C,G,G,,"^Fine" C,2 |] %32
 ^G,2 | A,=G,F,E, D,2 z C, | B,,2 z C, B,,B,^G,E, | A,B,CC, D,2 z E, | F,2 z ^G,, A,,D,E,E,, | %37
 A,,2 z2 z A,/B,/ CA, | ^F,2 z F,/D,/ G,A,B,G, | C,2 z ^C, D,E,^F,D, | G,G,, G,2- G,G,^F,C | %41
 B,3 ^A, B,2 B,2- | B,A, ^D,2 G,A,B,B,, |"^Da capo" E,2 |] %44

